apps/website/public/network-images/op-mainnet.svg

<?xml version="1.0" encoding="UTF-8"?>
<svg id="Icon" xmlns="http://www.w3.org/2000/svg" viewBox="0 0 48 48">
  <defs>
    <style>
      .cls-1 {
        fill: #ff0420;
      }

      .cls-2 {
        fill: #fff;
      }
    </style>
  </defs>
  <path class="cls-2" d="M24.0000103,36.2198346v8.9669951c-9.2237935,0-16.7032704-7.4795981-16.7032704-16.7032726,0-9.2237935,7.4794768-16.7032704,16.7032704-16.7032704V2.8131949c9.2236745,0,16.7032726,7.4795724,16.7032726,16.703248,0,9.2237935-7.4795981,16.7033917-16.7032726,16.7033917Z"/>
  <path class="cls-1" d="M24.0000103.0000126C10.7463776.0000126,0,10.7463673,0,24s10.7463776,23.9999874,24.0000103,23.9999874,23.9999897-10.7463536,23.9999897-23.9999874S37.2536464.0000126,24.0000103.0000126ZM24.0000103,36.2198346v8.9669951c-9.2237935,0-16.7032704-7.4795981-16.7032704-16.7032726,0-9.2237935,7.4794768-16.7032704,16.7032704-16.7032704V2.8131949c9.2236745,0,16.7032726,7.4795724,16.7032726,16.703248,0,9.2237935-7.4795981,16.7033917-16.7032726,16.7033917ZM32.2636862,23.9225991v.1548019c-3.6430782,1.814517-6.371877,4.5431968-8.186275,8.186275h-.1547996c-1.8145193-3.6430782-4.5433181-6.371758-8.1863963-8.186275v-.1548019c3.6430782-1.814517,6.371877-4.5431968,8.1863963-8.186275h.1547996c1.814398,3.6430782,4.5431968,6.371758,8.186275,8.186275Z"/>
</svg>

<svg width="48" height="48" viewBox="0 0 48 48" fill="none" xmlns="http://www.w3.org/2000/svg">
<path d="M24 0C10.7464 0 0 10.7464 0 24C0 37.2536 10.7464 48 24 48C37.2536 48 48 37.2536 48 24C48 10.7464 37.2536 0 24 0ZM24 36.2198V45.1868C14.7762 45.1868 7.29674 37.7072 7.29674 28.4835C7.29674 19.2598 14.7762 11.7803 24 11.7803V2.81318C33.2237 2.81318 40.7033 10.2928 40.7033 19.5164C40.7033 28.7402 33.2237 36.2198 24 36.2198ZM32.2637 23.9226V24.0774C28.6206 25.8919 25.8918 28.6206 24.0774 32.2637H23.9226C22.1081 28.6206 19.3793 25.8919 15.7362 24.0774V23.9226C19.3793 22.1081 22.1081 19.3794 23.9226 15.7363H24.0774C25.8918 19.3794 28.6206 22.1081 32.2637 23.9226Z" fill="#FF0420"/>
</svg>
